Obsidian-SemiLight/actions/22s/edit-select-lasso.svg

<svg viewBox="0 0 22 22" xmlns="http://www.w3.org/2000/svg"><path d="m10.912109 3a8 6.00001 0 0 0 -2.417968.302734l.83789.841797a7 5 0 0 1 1.667969-.148437 7 5 0 0 1 .527344.019536zm1.207031.0625.669922 1.105469a7 5 0 0 1 2.742188 1.017578l.8125-.644531a8 6.00001 0 0 0 -4.22461-1.478516m-4.701171.576172a8 6.00001 0 0 0 -1.859375.96875l.972656.546875a7 5 0 0 1 1.664063-.732422zm9.740231 1.53125-.789059.626953a7 5 0 0 1 .794919.837891l1-.292969a8 6.00001 0 0 0 -1.00586-1.171875m-12.43945.111328a8 6.00001 0 0 0 -1.033203 1.304688l.931641.367187a7 5 0 0 1 1.011718-1.160156zm13.929688 1.960938-.966797.283203a7 5 0 0 1 .296875 1.089843l1.005859.136719a8 6.00001 0 0 0 -.335937-1.509765m-15.386719.25a8 6.00001 0 0 0 -.257809 1.425781l1.0039-.044922a7 5 0 0 1 .181643-1.013672zm14.677734 2.126953a7 5 0 0 1 -.587891 1.466799l.990235.275388a8 6.00001 0 0 0 .583984-1.607422zm-13.830078.25-1.005859.044922a8 6.00001 0 0 0 .5625 1.472656l.910156-.417969a7 5 0 0 1 -.466797-1.099609m1.087891 1.916015-.939453.429688a8 6.00001 0 0 0 1.771487 1.466797c.636032 2.375609-1.840454 4.501349-1.0293 5.3125 1.134713.108119 1.809163-1.566816 2.082031-3.189453.102073-.13893.470996-.666928.767578-1.296876a8 6.00001 0 0 0 3.140625.488282l-1.066406-1.066406a7 5 0 0 1 -1.787109-.384766c.007923-.444052-.26577-.723596-1.134769-.544922-.00104-.001377-.00089-.004509-.00195-.005859-.079193 0-.157632-.015794-.236328-.027344a7 5 0 0 1 -1.566406-1.181641m11.460937.146485a7 5 0 0 1 -1.673828 1.167969l.976563.595702a8 6.00001 0 0 0 1.777343-1.46289zm-2.833984 1.632812a7 5 0 0 1 -2.429688.421875l.921875.921875a8 6.00001 0 0 0 2.59375-.681641z" fill="#4d4d4d"/></svg>

<svg xmlns="http://www.w3.org/2000/svg" viewBox="0 0 22 22">
  <defs id="defs3051">
    <style type="text/css" id="current-color-scheme">
      .ColorScheme-Text {
        color:#4d4d4d;
      }
      </style>
  </defs>
 <path 
    style="fill:currentColor;fill-opacity:1;stroke:none" 
	d="M10.912109 3A8 6.00001 0 0 0 8.494141 3.302734L9.332031 4.144531A7 5 0 0 1 11 3.996094 7 5 0 0 1 11.527344 4.01563L10.912109 3M12.11914 3.0625L12.789062 4.167969A7 5 0 0 1 15.53125 5.185547L16.34375 4.541016A8 6.00001 0 0 0 12.11914 3.0625M7.417969 3.638672A8 6.00001 0 0 0 5.558594 4.607422L6.53125 5.154297A7 5 0 0 1 8.195313 4.421875L7.417969 3.638672M17.1582 5.169922L16.369141 5.796875A7 5 0 0 1 17.16406 6.634766L18.16406 6.341797A8 6.00001 0 0 0 17.1582 5.169922M4.71875 5.28125A8 6.00001 0 0 0 3.685547 6.585938L4.617188 6.953125A7 5 0 0 1 5.628906 5.792969L4.71875 5.28125M18.648438 7.242188L17.681641 7.525391A7 5 0 0 1 17.978516 8.615234L18.984375 8.751953A8 6.00001 0 0 0 18.648438 7.242188M3.261719 7.492188A8 6.00001 0 0 0 3.00391 8.917969L4.00781 8.873047A7 5 0 0 1 4.189453 7.859375L3.261719 7.492188M17.939453 9.619141A7 5 0 0 1 17.351562 11.08594L18.341797 11.361328A8 6.00001 0 0 0 18.925781 9.753906L17.939453 9.619141M4.109375 9.869141L3.103516 9.914063A8 6.00001 0 0 0 3.666016 11.386719L4.576172 10.96875A7 5 0 0 1 4.109375 9.869141M5.197266 11.785156L4.257813 12.214844A8 6.00001 0 0 0 6.0293 13.681641C6.665332 16.05725 4.188846 18.18299 5 18.994141 6.134713 19.10226 6.809163 17.427325 7.082031 15.804688 7.184104 15.665758 7.553027 15.13776 7.849609 14.507812A8 6.00001 0 0 0 10.990234 14.996094L9.923828 13.929688A7 5 0 0 1 8.136719 13.544922C8.144642 13.10087 7.870949 12.821326 7.00195 13 7.00091 12.998623 7.00106 12.995491 7 12.994141 6.920807 12.994141 6.842368 12.978347 6.763672 12.966797A7 5 0 0 1 5.197266 11.785156M16.658203 11.931641A7 5 0 0 1 14.984375 13.09961L15.960938 13.695312A8 6.00001 0 0 0 17.738281 12.232422L16.658203 11.931641M13.824219 13.564453A7 5 0 0 1 11.394531 13.986328L12.316406 14.908203A8 6.00001 0 0 0 14.910156 14.226562L13.824219 13.564453"
    class="ColorScheme-Text"
    />  
</svg>
